packages/calcite-ui-icons/icons/integer-set-24.svg

<?xml version="1.0" encoding="UTF-8"?><svg id="icons" xmlns="http://www.w3.org/2000/svg" viewBox="0 0 24 24"><defs><style>.cls-1{fill:none;}</style></defs><path d="M14,15h3v1h-2v7h2v1h-3v-9ZM21,16h2v7h-2v1h3v-9h-3v1ZM5,5h-3v1h2v6h-2v1h5v-1h-2v-7ZM14,13v-6.75c0-.68945-.56055-1.25-1.25-1.25h-2.5c-.68945,0-1.25.56055-1.25,1.25v6.75h1v-6.75c0-.1377.1123-.25.25-.25h2.5c.1377,0,.25.1123.25.25v6.75h1ZM5,4V1h-1v3h1ZM21,12h-1.75c-.1377,0-.25-.1123-.25-.25v-5.75h2v-1h-2V0h-1v5h-2v1h2v5.75c0,.68945.56055,1.25,1.25,1.25h1.75v-1Z"/><rect class="cls-1" width="24" height="24"/></svg>

<svg xmlns="http://www.w3.org/2000/svg" viewBox="0 0 24 24"><path d="M14 15h3v1h-2v7h2v1h-3zm7 1h2v7h-2v1h3v-9h-3zM5 5H2v1h2v6H2v1h5v-1H5zm9 8V6.25C14 5.56 13.44 5 12.75 5h-2.5C9.56 5 9 5.56 9 6.25V13h1V6.25a.25.25 0 0 1 .25-.25h2.5a.25.25 0 0 1 .25.25V13zM5 4V1H4v3zm16 8h-1.75a.25.25 0 0 1-.25-.25V6h2V5h-2V0h-1v5h-2v1h2v5.75c0 .69.56 1.25 1.25 1.25H21z"/><path d="M0 0h24v24H0z" style="fill:none"/></svg>
